X: 20316
T: John Brennan's Fiddle
R: hornpipe
M: 4/4
K: Dmajor
|:FDAD FAAD|GDBD GBBG|FDAD FAAD|E3F GFEG|
FDAD FAAD|GDBD GBBG|FABc dBAG|FAEA D3G:|
|:dAFA FDAD|BGDG BGdG|dA A2 FDAD|E3F GFGB|
dAFA FDAD|BGDG BGdG|FABc dBAG|FAEA D3G:|
|:fdcd AFDF|GB B2 dGBG|fdcd AF F2|E3F GFGB|
fdcd AFDF|GB B2 dGBG|FABc dBAG|FAEA D3G:|
|:fd d2 faad|gd d2 gbbg|fd d2 faad|e3f gfeg|
fd d2 faad|gd d2 gbbg|fedc dBAG|FAEA D3G:|

